twotone/svg/storage.svg

<svg xmlns="http://www.w3.org/2000/svg" width="24" height="24"><path fill="none" d="M0 0h24v24H0V0z"/><g fill="currentColor"><path d="M2 20h20v-4H2v4zm2-3h2v2H4v-2zM2 4v4h20V4H2zm4 3H4V5h2v2zm-4 7h20v-4H2v4zm2-3h2v2H4v-2z"/></g></svg>

<?xml version="1.0" encoding="utf-8"?>
<!-- Generator: Adobe Illustrator 19.1.0, SVG Export Plug-In . SVG Version: 6.00 Build 0)  -->
<svg version="1.1" xmlns="http://www.w3.org/2000/svg" xmlns:xlink="http://www.w3.org/1999/xlink" x="0px" y="0px" width="24px"
	 height="24px" viewBox="0 0 24 24" enable-background="new 0 0 24 24" xml:space="preserve">
<g id="Bounding_Boxes">
	<g id="ui_x5F_spec_x5F_header_copy_3">
	</g>
	<path fill="none" d="M0,0h24v24H0V0z"/>
</g>
<g id="Duotone" fill="currentColor">
	<g id="ui_x5F_spec_x5F_header_copy_2">
	</g>
	<path d="M2,20h20v-4H2V20z M4,17h2v2H4V17z M2,4v4h20V4H2z M6,7H4V5h2V7z M2,14h20v-4H2V14z M4,11h2v2H4V11z"/>
</g>
</svg>
